Obsidian-SemiLight/actions/22s/object-order-raise.svg

<svg viewBox="0 0 22 22" xmlns="http://www.w3.org/2000/svg"><path d="m13 3v1h6v-1zm-2 2v1h8v-1zm-8 2v1h16v-1zm3.5 2-.21875.2148438-3.28125 3.2304682.71875.708985 2.28125-2.246094v4.152344 3.939453h1v-3.939453-4.152344l2.28125 2.246094.71875-.708985-3.28125-3.2304682zm8.5 0v1h4v-1zm-5 2v1h9v-1zm2 2v1h7v-1zm4 2v1h3v-1zm-6 2v1h9v-1z" fill="#4d4d4d"/></svg>

<svg xmlns="http://www.w3.org/2000/svg" viewBox="0 0 22 22">
  <defs id="defs3051">
    <style type="text/css" id="current-color-scheme">
      .ColorScheme-Text {
        color:#4d4d4d;
      }
      .ColorScheme-Highlight {
        color:#3daee9;
      }
      </style>
  </defs>
 <path 
     style="fill:currentColor;fill-opacity:1;stroke:none" 
     d="M 13 3 L 13 4 L 19 4 L 19 3 L 13 3 z M 11 5 L 11 6 L 19 6 L 19 5 L 11 5 z M 3 7 L 3 8 L 19 8 L 19 7 L 3 7 z M 6.5 9 L 6.28125 9.2148438 L 3 12.445312 L 3.71875 13.154297 L 6 10.908203 L 6 15.060547 L 6 19 L 7 19 L 7 15.060547 L 7 10.908203 L 9.28125 13.154297 L 10 12.445312 L 6.71875 9.2148438 L 6.5 9 z M 15 9 L 15 10 L 19 10 L 19 9 L 15 9 z M 10 11 L 10 12 L 19 12 L 19 11 L 10 11 z M 12 13 L 12 14 L 19 14 L 19 13 L 12 13 z M 16 15 L 16 16 L 19 16 L 19 15 L 16 15 z M 10 17 L 10 18 L 19 18 L 19 17 L 10 17 z "
     class="ColorScheme-Text"
     />
</svg>
